X:1
T:Title
L:1/8
Q:1/4=100
M:4/4
K:F
V:1 treble nm="Grand Piano"
V:1
 z AAG GFGA | B4 B4 | z2 GF FEAG | A4 A4 | z FFD DFBA | G8 | z2 AG A2 AG | A8 | z AAG GFGA | %9
 B4 B4 | z2 GF FEAG | A4 A4 | z FFD DFBA | G8 | z2 AG A2 AF | D8 | z4 d4 | d4 c4 | c4 dccd | %19
 B2 c2 c2 B2 | B2 GA- A4 | z2 B2 B2 F2 | B2 d^c- c4 | z AAG A2 AG | A8 | z2 d2 d2 c2 | c4 dccd | %27
 B2 c2 c2 B2 | B2 GA- A4 | z2 B2 B2 F2 | B2 d^c- c4 | z AAG A2 AF | D8 | z AAG GFGA | B4 B4 | %35
 z2 GF FEAG | A4 A4 | z FFD DFBA | G8 | z2 AG A2 AF | D8 |] %41

